X:30
T:Egypt continued
S:John Moore's Book 3
Z:Transcribed by John Adams 05/2021  
%%VWML:Moore1-4495-p48-0
F:https://www.vwml.org/record/Moore3/4495/p48
M:none
L:1/8
K:Bb
V:1 dyn=up
B2z2|z B B B|B2z!p!c|c2c2|c3d|(cB) (AG)|!fermata!A3!f!c|d d d A|B B B B|A A A B|c c c B|B2A2|(B/A/B/c/B)e|d2c2|B4||
V:2
f2zg|g2g2|g2za|(ag) (fg)|agf g|fc c2|!fermata!c3f|f f f f|f f f z|z4|z2z1e|f2f2|f3g|f2f2|f4||
V:3 dyn=up
d2zd|e2e2|d2zc|!p!(cB) (AB)|c3B|AG F=E|!fermata!F3!f!F|B B B c|d d d !p!f| c c c d|e e e !f!g|f2e2|(d/c/d/e/d) c|B2A2|B4||
V:4 clef=bass
B,2zz|zB, B, B,|B,2zF,|F,2F,2|(F,G,A,) B,|C2C,2|!fermata!F,3 F,|D, B,, D, F,|B, B, B, z|z4|z2zE,|D,2F,2|B,3E,|F,2F,2|B,,4||

